X:1
T:Ma bouche noze dire
T:Pierre Certon
T:Source : Livre XVI de 29 chansons nouvelles à 4 parties---Paris---P.Attaingnant---1545. Editor : André Vierendeels (29/06/18) Notes : Original clefs : C1, C3, C4, F4 Original note values have been halved Original note values have been quartered in 3-beat measures from m Editorial accidentals above the staff 
T:Ma bouche noze dire
T:©
T:©
T:©
C:Pierre Certon
Z:©
%%score [ 1 [ 2 3 ] 4 ]
L:1/8
Q:1/4=120
M:3/4
K:F
V:1 treble nm="Alto" snm="A"
V:2 treble-8 nm="Tenor 1" snm="T 1"
V:3 treble-8 nm="Tenor 2" snm="T 2"
V:4 bass nm="Bass" snm="B"
V:1
 z2 z2 G2 | F4 F2 | F4 F2 |[M:2/2] E4 D2 D2 | FEFG A2 B2 | B2 AG FD d2 | c2 B2 AG G2- | %7
w: Ma|bou- che|no- ze|di- re, mon|a- * * * * mou-|reux _ _ _ _ de-||
w: Ne|ma main|le des-|cri- pre, de|peur _ _ _ _ de|des _ _ _ _ plai-||
"^#" G2 F2 G4 :| z2 D2 D2 D2 | E2 G2 F2 F2 | G2 A2 A2 G2 | A2 B4 AG |[M:3/4] F4 F2 | A4 A2 | %14
w: * * sir,|mais cest que|ie suis tien et|se- ray en tous|_ _ _ _|lieux, t'a-|ban don-|
w: * * sir,|||||||
 G2 B4 |[M:2/2] A4 z2 D2 | F2 F2 E2 E2 | DEFG ABcB | AG A4 G2- |:[M:2/4]"^#" G2 F2 |[M:3/4] G4 F2 | %21
w: nant mon|bien, et|mon cueur qui vault|my- * * * * * * *|||eulx, t'a-|
w: |||||||
 A4 A2 | G2 B4 |[M:2/2] A4 z2 D2 | F2 F2 E2 E2 | DEFG ABcB | AG A4 G2- :|"^#" G2 F2 G4 | G8 |] %29
w: ban- don-|nant mon|bien, et|mon cueur qui vault|my- * * * * * * *|* * * my-|(my- ) _|eulx|
w: ||||||||
V:2
 z2 z2 d2 | d4 d2 | d4 d2 |[M:2/2] c4 A2 A2 | d6 d2 | d2 d4 f2- |"^b" f2 d2 e2 c2 | d4 B4 :| %8
w: Ma|bou- che|no- ze|di- re, mon|a- mou-|reux, mon a-|* mou- reux _|de- sir,|
w: Ne|ma main|le des-|cri- pre, de|peur de|des- plai- *||* sir,|
 z2 F2 F2 F2 | G2 G2 A2 A2 | B2 f2 f2 e2 | f2 F2 G4 |[M:3/4] A4 d2 | c4 f2 | d4 e2 | %15
w: mais cest que|ie suis tien et|se- ray en tous|lieux, en tous|lieux, t'a-|ban- don-|nant mon|
w: |||||||
[M:2/2] f2 d2 f2 f2- | fe d4 c2 | d2 d2 c4- | c2 A2 B2 c2 |:[M:2/4] d4 |[M:3/4] B4 d2 | c4 f2 | %22
w: bien, et mon cueur|_ _ _ qui|vault my- eulx,|_ qui vault _|my-|eulx, t'a-|ban- don-|
w: |||||||
 d4 e2 |[M:2/2] f2 d2 f2 f2- | fe d4 c2 | d2 d2 c4- | c2 A2 B2 c2 :| d4 B4 | B8 |] %29
w: nant mon|bien, et mon cueur|_ _ _ qui|vault my- eulx,|_ qui vault _|my- *|eulx.|
w: |||||||
V:3
 z2 z2 B2 | B4 B2 | B4 B2 |[M:2/2] G4 F4 | z2 D2 F2 G2 | D2 D2 FEFG | A2 B2 cBAG | A2 A2 G4 :| %8
w: Ma|bou- che|no- ze|di- re,|mon a- mou-|reux, mon a- * * *|* mou- reux _ _ _|_ de- sir,|
w: Ne|ma main|le des-|cri- pre,|de peur de|des- plai- * * * *||* * sir,|
 z2 A2 A3 B | c2 c2 d4- | d4 z2 B2 | c2 d2 d2 c2 |[M:3/4] d4 A2 | A4 A2 | B4 B2 | %15
w: mais cest que|ie suis tien|_ et|se- ray en tous|lieux, t'a-|ban- don-|nant mon|
w: |||||||
[M:2/2] d3 c/B/ A4- | A4 z2 A2 | B2 B2 A2 FG | AB c3 B AG |:[M:2/4] A4 |[M:3/4] G4 A2 | A4 A2 | %22
w: bien _ _ _|_ et|mon cueur qui vault _|_ _ _ _ _ _|my-|eulx, t'a-|ban- don-|
w: |||||||
 B4 B2 |[M:2/2] d3 c/B/ A4- | A4 z2 A2 | B2 B2 A2 FG | AB c3 B AG :| A4 G4 | G8 |] %29
w: nant mon|bien _ _ _|_ et|mon cueur qui vault _|_ _ _ _ _ _|my _|eulx.|
w: |||||||
V:4
 z2 z2 G,,2 | B,,4 B,,2 | B,,4 B,,2 |[M:2/2] C,4 D,4- | D,4 z2 G,,2 | B,,A,,B,,C, D,3 E, | %6
w: Ma|bou- che|no- ze|di- re,|_ mon|a- * * * * *|
w: Ne|ma main|le des-|cri- pre,|_ de|peur _ _ _ _ _|
"^b" F,2 G,2 C,2 E,2 | D,4 G,,4 :| z2 D,2 D,2 D,2 | C,2 E,2 D,2 D,2 | G,2 F,2 F,2 G,2 | %11
w: * * mou- reux|de- sir,|mais cest que|ie suis tien et|se- ray en tous|
w: _ _ de des-|plai- sir,||||
"^b""^b" F,2 E,D, E,4 |[M:3/4] D,4 D,2 | F,4 F,2 | G,4 G,2 |[M:2/2] D,8- | D,4 z4 | z2 D,2 F,3 F, | %18
w: _ _ _ _|lieux, t'a-|ban- don-|nant mon|bien,|_|et mon cueur|
w: |||||||
"^b" F,2 F,2 E,2 E,2 |:[M:2/4]"^b" D,2 D,2 |[M:3/4] G,,4 D,2 | F,4 F,2 | G,4 G,2 |[M:2/2] D,8- | %24
w: qui vault myeulx, qui|vault my-|eulx, t'a-|ban- don-|nant mon|bien,|
w: ||||||
 D,4 z4 | z2 D,2 F,4- |"^b""^b" F,2 F,2 E,2 E,2 :| D,4 G,,4 | G,,8 |] %29
w: _|qui vault|_ my- eulx, qui|vault my-|eulx.|
w: |||||

